T:The Ghost
R:three-two
M:3/2
L:1/8
K:Dmaj
E3 B B/2c/2B A3 B d2| E3 E e2 c3 BAB|E3 B B/2c/2B A3 B d2| e3 B d2 c3 B AB|
E3 B B/2c/2B A3 B d2| E3 E e2 c3 B A2| B3 G E2 A3 d c2 |B3 G E2 A6:|
B3 g f2 e6| a3 e g2 f3 e d2 | e3 =c A2 d3 g f2| e3 =c A2 d6|
B3 g f2 e6| a3 e g2 f3 e d2 | e3 =c A2 d3 g f2|e3 =c A B3 A B2||

Original key with chords
